img/svg/pdf.svg

<?xml version="1.0" encoding="utf-8"?><!DOCTYPE svg PUBLIC "-//W3C//DTD SVG 1.1//EN" "http://www.w3.org/Graphics/SVG/1.1/DTD/svg11.dtd"><svg version="1.1" baseProfile="full" xmlns="http://www.w3.org/2000/svg" xmlns:xlink="http://www.w3.org/1999/xlink" xmlns:ev="http://www.w3.org/2001/xml-events"   height="24px"   width="21px" ><path fill="rgb( 255, 102, 0 )" d="M19.671,18.27 C19.671,18.27 19.102,18.27 19.102,18.27 C19.102,18.27 19.102,23.059 19.102,23.059 C19.102,23.578 18.684,24 18.172,24 C18.172,24 2.82799999999997,24 2.82799999999997,24 C2.31500000000005,24 1.89800000000002,23.578 1.89800000000002,23.059 C1.89800000000002,23.059 1.89800000000002,18.27 1.89800000000002,18.27 C1.89800000000002,18.27 1.32899999999995,18.27 1.32899999999995,18.27 C0.59500000000003,18.27 0,17.667 0,16.925 C0,16.925 0,9.93000000000001 0,9.93000000000001 C0,9.18700000000001 0.59500000000003,8.584 1.32899999999995,8.584 C1.32899999999995,8.584 1.89800000000002,8.584 1.89800000000002,8.584 C1.89800000000002,8.584 1.89800000000002,0.94099999999997 1.89800000000002,0.94099999999997 C1.89800000000002,0.42200000000003 2.31500000000005,0 2.82799999999997,0 C2.82799999999997,0 14.064,0 14.064,0 C14.101,0 14.1369999999999,0.005 14.171,0.01299999999998 C14.1799999999999,0.01600000000002 14.187,0.01900000000001 14.196,0.02199999999999 C14.228,0.03100000000001 14.259,0.04500000000002 14.288,0.06099999999998 C14.298,0.06700000000001 14.308,0.072 14.318,0.07900000000001 C14.352,0.101 14.384,0.12700000000001 14.4109999999999,0.15800000000002 C14.412,0.15899999999999 14.413,0.16000000000003 14.414,0.161 C14.414,0.161 18.986,5.447 18.986,5.447 C19.061,5.53300000000002 19.096,5.64100000000002 19.097,5.75200000000001 C19.099,5.76900000000001 19.102,5.78699999999998 19.102,5.80399999999997 C19.102,5.80399999999997 19.102,8.58499999999998 19.102,8.58499999999998 C19.102,8.58499999999998 19.671,8.58499999999998 19.671,8.58499999999998 C20.405,8.58499999999998 21,9.18700000000001 21,9.93000000000001 C21,9.93000000000001 21,16.925 21,16.925 C21,17.668 20.405,18.27 19.671,18.27 ZM2.82799999999997,22.804 C2.82799999999997,22.804 18.172,22.804 18.172,22.804 C18.172,22.804 18.172,18.27 18.172,18.27 C18.172,18.27 2.82799999999997,18.27 2.82799999999997,18.27 C2.82799999999997,18.27 2.82799999999997,22.804 2.82799999999997,22.804 ZM14.244,13.465 C14.244,12.224 13.79,11.359 13.069,10.817 C12.4,10.306 11.544,10.066 10.226,10.066 C9.43299999999999,10.066 8.68100000000004,10.118 8.10400000000004,10.212 C8.10400000000004,10.212 8.10400000000004,17.114 8.10400000000004,17.114 C8.49599999999998,17.166 9.07299999999998,17.219 9.88599999999997,17.219 C11.246,17.219 12.3579999999999,16.927 13.0890000000001,16.312 C13.76,15.738 14.244,14.81 14.244,13.465 ZM2.11800000000005,10.212 C2.11800000000005,10.212 2.11800000000005,17.146 2.11800000000005,17.146 C2.11800000000005,17.146 2.11800000000005,17.146 2.11800000000005,17.146 C2.11800000000005,17.146 3.673,17.146 3.673,17.146 C3.673,17.146 3.673,14.633 3.673,14.633 C3.81700000000001,14.654 4.00300000000004,14.665 4.20899999999995,14.665 C5.13599999999997,14.665 5.92899999999997,14.435 6.46500000000003,13.924 C6.87699999999995,13.528 7.10299999999995,12.944 7.10299999999995,12.256 C7.10299999999995,11.568 6.80499999999995,10.984 6.36199999999997,10.629 C5.899,10.254 5.20799999999997,10.066 4.24000000000001,10.066 C3.28200000000004,10.066 2.60199999999998,10.129 2.11800000000005,10.212 ZM18.172,6.22699999999998 C18.172,6.22699999999998 14.064,6.22699999999998 14.064,6.22699999999998 C13.808,6.22699999999998 13.599,6.017 13.599,5.75700000000001 C13.599,5.75700000000001 13.599,0.94099999999997 13.599,0.94099999999997 C13.599,0.94099999999997 2.82799999999997,0.94099999999997 2.82799999999997,0.94099999999997 C2.82799999999997,0.94099999999997 2.82799999999997,8.58499999999998 2.82799999999997,8.58499999999998 C2.82799999999997,8.58499999999998 18.172,8.58499999999998 18.172,8.58499999999998 C18.172,8.58499999999998 18.172,6.22699999999998 18.172,6.22699999999998 ZM19.519,10.118 C19.519,10.118 15.275,10.118 15.275,10.118 C15.275,10.118 15.275,17.146 15.275,17.146 C15.275,17.146 16.85,17.146 16.85,17.146 C16.85,17.146 16.85,14.32 16.85,14.32 C16.85,14.32 19.3440000000001,14.32 19.3440000000001,14.32 C19.3440000000001,14.32 19.3440000000001,13.027 19.3440000000001,13.027 C19.3440000000001,13.027 16.85,13.027 16.85,13.027 C16.85,13.027 16.85,11.422 16.85,11.422 C16.85,11.422 19.519,11.422 19.519,11.422 C19.519,11.422 19.519,10.118 19.519,10.118 ZM5.548,12.297 C5.548,13.017 5.03300000000002,13.444 4.19899999999996,13.444 C3.97299999999996,13.444 3.80799999999999,13.434 3.67399999999998,13.403 C3.67399999999998,13.403 3.67399999999998,11.328 3.67399999999998,11.328 C3.78700000000003,11.297 4.00300000000004,11.265 4.322,11.265 C5.10500000000002,11.265 5.548,11.651 5.548,12.297 ZM10.226,15.978 C10.0309999999999,15.978 9.81399999999996,15.978 9.67999999999995,15.947 C9.67999999999995,15.947 9.67999999999995,11.349 9.67999999999995,11.349 C9.81500000000005,11.317 10.0410000000001,11.286 10.391,11.286 C11.74,11.286 12.585,12.057 12.575,13.517 C12.575,15.196 11.648,15.989 10.226,15.978 Z "/></svg>

<svg baseProfile="full" xmlns="http://www.w3.org/2000/svg" height="24" width="21"><path fill="rgb( 255, 102, 0 )" d="M19.671 18.27h-.569v4.789c0 .519-.418.941-.93.941h-15.344c-.513 0-.93-.422-.93-.941v-4.789h-.569c-.734 0-1.329-.603-1.329-1.345v-6.995c0-.743.595-1.346 1.329-1.346h.569v-7.643c0-.519.417-.941.93-.941h11.236l.107.013.025.009.092.039.03.018.093.079.003.003 4.572 5.286c.075.086.11.194.111.305l.005.052v2.781h.569c.734 0 1.329.602 1.329 1.345v6.995c0 .743-.595 1.345-1.329 1.345zm-16.843 4.534h15.344v-4.534h-15.344v4.534zm11.416-9.339c0-1.241-.454-2.106-1.175-2.648-.669-.511-1.525-.751-2.843-.751-.793 0-1.545.052-2.122.146v6.902c.392.052.969.105 1.782.105 1.36 0 2.472-.292 3.203-.907.671-.574 1.155-1.502 1.155-2.847zm-12.126-3.253v6.934h1.555v-2.513c.144.021.33.032.536.032.927 0 1.72-.23 2.256-.741.412-.396.638-.98.638-1.668s-.298-1.272-.741-1.627c-.463-.375-1.154-.563-2.122-.563-.958 0-1.638.063-2.122.146zm16.054-3.985h-4.108c-.256 0-.465-.21-.465-.47v-4.816h-10.771v7.644h15.344v-2.358zm1.347 3.891h-4.244v7.028h1.575v-2.826h2.494v-1.293h-2.494v-1.605h2.669v-1.304zm-13.971 2.179c0 .72-.515 1.147-1.349 1.147-.226 0-.391-.01-.525-.041v-2.075c.113-.031.329-.063.648-.063.783 0 1.226.386 1.226 1.032zm4.678 3.681c-.195 0-.412 0-.546-.031v-4.598c.135-.032.361-.063.711-.063 1.349 0 2.194.771 2.184 2.231 0 1.679-.927 2.472-2.349 2.461z"/></svg>
